X:358
T: MAG AUCH HEISS DAS SCHEIDEN BRENNEN
N: B0425
O: Europa, Mitteleuropa, Deutschland, Frauenberg (Nahe)
R: Liebes - Lied, Liebes - Lust
M: 3/4
L: 1/16
K: Eb
B2G2 | c6B2A2G2 | F3AG4
G2B2 | e3cG4=A4 | B8
B2G2 | c6B2A2G2 | F3AG4
F2B2 | B2=A2d6c2 | B8
d3c | B4F4G2A2 | c3BB4
c2B2 | e3Gd4c4 | B3AG4

